packages/tokens/icons/settings/size24Px.svg

<svg viewBox="0 0 24 24" fill="none" xmlns="http://www.w3.org/2000/svg" width="1em" height="1em"><path d="M21.0342 10.5463H20.0818C19.8865 9.69152 19.5446 8.91003 19.1051 8.17738L19.7644 7.51799C19.9597 7.32262 19.9597 7.02956 19.7644 6.83419L17.6887 4.75835C17.4934 4.56298 17.2004 4.56298 17.005 4.75835L16.3457 5.41774C15.6131 4.97815 14.8317 4.63625 13.977 4.44087V3.48843C13.977 3.21979 13.7573 3 13.4886 3L10.5583 3C10.2897 3 10.07 3.21979 10.07 3.48843V4.44087C9.21528 4.63625 8.43387 4.97815 7.70129 5.41774L7.01755 4.75835C6.8222 4.56298 6.52917 4.56298 6.33382 4.75835L4.25818 6.83419C4.06283 7.02956 4.06283 7.32262 4.25818 7.51799L4.9175 8.17738C4.47796 8.91003 4.13609 9.69152 3.94073 10.5463H2.98838C2.71977 10.5463 2.5 10.7661 2.5 11.0347L2.5 13.9653C2.5 14.2339 2.71977 14.4537 2.98838 14.4537H3.94073C4.13609 15.3085 4.47796 16.09 4.9175 16.8226L4.25818 17.482C4.06283 17.6774 4.06283 17.9704 4.25818 18.1658L6.33382 20.2416C6.52917 20.437 6.8222 20.437 7.01755 20.2416L7.67687 19.5823C8.40945 20.0219 9.19086 20.3638 10.0455 20.5591V21.5116C10.0455 21.7802 10.2653 22 10.5339 22H13.4642C13.7328 22 13.9526 21.7802 13.9526 21.5116V20.5591C14.8073 20.3638 15.5887 20.0219 16.3213 19.5823L16.9806 20.2416C17.1759 20.437 17.469 20.437 17.6643 20.2416L19.74 18.1658C19.9353 17.9704 19.9353 17.6774 19.74 17.482L19.0806 16.8226C19.5202 16.09 19.8621 15.3085 20.0574 14.4537H21.0098C21.2784 14.4537 21.4981 14.2339 21.4981 13.9653V11.0347C21.5226 10.7661 21.3028 10.5463 21.0342 10.5463Z" stroke="currentColor" stroke-miterlimit="10"/><circle cx="12" cy="12.5002" r="5.04167" stroke="currentColor"/></svg>

<svg xmlns="http://www.w3.org/2000/svg" fill="none" viewBox="0 0 24 24" width="1em" height="1em"><path stroke="currentColor" stroke-miterlimit="10" d="M21.034 10.546h-.952a8.088 8.088 0 0 0-.977-2.369l.66-.659a.472.472 0 0 0 0-.684l-2.076-2.076a.472.472 0 0 0-.684 0l-.66.66a8.087 8.087 0 0 0-2.368-.977v-.953A.49.49 0 0 0 13.489 3h-2.93a.49.49 0 0 0-.489.488v.953a8.086 8.086 0 0 0-2.369.977l-.683-.66a.472.472 0 0 0-.684 0L4.258 6.834a.472.472 0 0 0 0 .684l.66.66a8.088 8.088 0 0 0-.977 2.368h-.953a.49.49 0 0 0-.488.489v2.93c0 .269.22.489.488.489h.953a8.08 8.08 0 0 0 .977 2.369l-.66.659a.472.472 0 0 0 0 .684l2.076 2.076a.472.472 0 0 0 .684 0l.659-.66c.732.44 1.514.782 2.369.977v.953c0 .268.22.488.488.488h2.93a.49.49 0 0 0 .489-.488v-.953a8.084 8.084 0 0 0 2.368-.977l.66.66a.472.472 0 0 0 .683 0l2.076-2.076a.472.472 0 0 0 0-.684l-.66-.66c.44-.732.782-1.513.977-2.368h.953a.49.49 0 0 0 .488-.489v-2.93a.455.455 0 0 0-.464-.489Z"/><circle cx="12" cy="12.5" r="5.042" stroke="currentColor"/></svg>
